X: 1
T: Dolina MacKay
M: 4/4
L: 1/8
R: reel
K: Amin
A2A2 GAAB | BABd e2de | aeea e2dB | A2Ae dBGB |
A2A2 GAAB | BABd e2de | aeea e2dB | A2BG A4 :|
|: aeea e2de | aged e2de | gddg d2gd | e^fge fedB |
aeea e2de | aged e2de | aeea e2dB | A2BG A4 :|
|: ABBd e2de | aged e2dB | GBBd e2de | gedB e2dB |
ABBd e2de | aged e2de | aeea e2dB | A2BG A4 :|
|: Aa2A g2Aa- | aaag e2dB | Ggg^f g2de | gedB e2dB |
Aa2A g2Aa- | aaag e2de | aeea e2dB | A2BG A4 :|
